Codeartpro/images/main/logo-8.svg

<svg width="259" height="33" viewBox="0 0 259 33" fill="none" xmlns="http://www.w3.org/2000/svg">
<g opacity="0.6">
<path fill-rule="evenodd" clip-rule="evenodd" d="M0 31.6373V30.4539C3.27308 30.3184 4.09099 29.9529 4.09099 26.8183V6.0009C4.09099 2.81919 3.27308 2.45666 0 2.3196V1.18192H13.4092C20.7733 1.18192 25.4095 3.77267 25.4095 8.68155C25.4095 12.5456 22.3648 15.045 18.6821 15.6816V15.773C22.5918 16.5467 27.0453 18.545 27.0453 23.2284C27.0453 28.1388 23.1813 31.6388 15.1364 31.6388H0V31.6373ZM10.1818 27.9103C10.1818 29.1364 10.8184 29.8645 13.3635 29.8645C18.1368 29.8645 20.7276 26.5914 20.7733 23.2269C20.8189 18.9562 17.1376 16.9092 10.1818 17.0448V27.9103ZM10.1818 15.2277C16.728 15.2277 19.3187 13.1822 19.3187 8.77291C19.3187 5.45415 17.092 2.95476 12.637 2.95476C11.0454 2.95476 10.1818 3.54572 10.1818 5.04594V15.2277ZM29.1822 31.6373V30.4539C32.4553 30.3184 33.3189 29.9529 33.3189 26.8183V6.0009C33.3189 2.81919 32.4553 2.45666 29.1822 2.3196V1.18192H42.637C49.9554 1.18192 54.6374 3.77267 54.6374 8.68155C54.6374 12.5456 51.5912 15.045 47.8643 15.6816V15.773C51.8197 16.5467 56.2275 18.545 56.2275 23.2284C56.2275 28.1388 52.4091 31.6388 44.3185 31.6388H29.1822V31.6373ZM39.4096 27.9103C39.4096 29.1364 40.0463 29.8645 42.5914 29.8645C47.319 29.8645 49.9098 26.5914 49.9554 23.2269C50.0011 18.9562 46.364 16.9092 39.4096 17.0448V27.9103ZM39.4096 15.2277C45.9543 15.2277 48.5466 13.1822 48.5466 8.77291C48.5466 5.45415 46.3183 2.95476 41.8191 2.95476C40.2732 2.95476 39.4096 3.54572 39.4096 5.04594V15.2277Z" fill="white"/>
<path fill-rule="evenodd" clip-rule="evenodd" d="M126.455 31.3648V0.636638L137.909 0.728002C147.954 0.728002 154.546 7.18282 154.546 16.2284C154.546 25.2754 147.319 31.7745 137.909 31.7745L126.455 31.3648ZM137.909 27.1367C144.32 27.1367 148.545 22.3649 148.545 16.2284C148.545 9.68369 144.32 5.36427 137.909 5.36427L132.319 5.2729V27.0468L137.909 27.1367ZM164.545 5.54554H155.865L155.91 0.636638H178.91L178.865 5.54554H170.273L170.046 31.6374H164.318L164.545 5.54554ZM182.863 0.636638H199.457V5.54554H188.591L188.501 13.5463H199.272V18.1825H188.455L188.41 26.727H199.457V31.6374H182.546L182.863 0.636638ZM105.137 0.636638H121.728V5.54554H110.864L110.772 13.5463H121.545V18.1825H110.727L110.682 26.727H121.728V31.6374H104.819L105.137 0.636638ZM230.046 29.2751C227.183 31.2719 223.683 32.2741 220.183 32.2741C210.954 32.2741 204.09 25.5009 204.09 16.2269C204.09 6.68176 210.727 0 219.956 0C223.637 0 227.273 1.22759 230.09 3.5914L227.593 7.59104C225.681 5.95523 222.592 4.95458 220.137 4.95458C214.092 4.95458 210.092 9.77358 210.092 15.9528C210.092 21.8624 214.182 27.3165 219.956 27.3165C223.911 27.3165 225.865 26.4102 227.774 25.3197L230.046 29.2751ZM233.772 0.636638H239.546L239.456 13.2736H253.09L253.183 0.636638H259L258.726 31.6374H252.909L253.09 18.1825H239.456L239.272 31.6374H233.501L233.772 0.636638ZM60.0918 30.5911L66.2268 0.18274H73.2726L79.7274 24.5916L88.4104 0.18274H95.5004L98.6821 30.5469L93.0909 31.5917L91.4551 9.40958L83.2274 31.5917H75.5008L69.8182 9.63653L65.9999 31.5917L60.0918 30.5911Z" fill="white"/>
</g>
</svg>

<svg width="259" height="33" fill="none" xmlns="http://www.w3.org/2000/svg"><path d="M0 31.637v-1.183c3.273-.136 4.091-.501 4.091-3.636V6.001c0-3.182-.818-3.544-4.091-3.681V1.182h13.41c7.363 0 12 2.59 12 7.5 0 3.864-3.045 6.363-6.728 7v.091c3.91.774 8.363 2.772 8.363 7.455 0 4.91-3.864 8.41-11.909 8.41H0zm10.182-3.727c0 1.226.636 1.954 3.181 1.954 4.774 0 7.365-3.273 7.41-6.637.046-4.27-3.635-6.318-10.591-6.182V27.91zm0-12.682c6.546 0 9.137-2.046 9.137-6.455 0-3.319-2.227-5.818-6.682-5.818-1.592 0-2.455.59-2.455 2.09v10.183zm19 16.41v-1.184c3.273-.136 4.137-.501 4.137-3.636V6.001c0-3.182-.864-3.544-4.137-3.681V1.182h13.455c7.318 0 12 2.59 12 7.5 0 3.864-3.046 6.363-6.773 7v.091c3.956.774 8.364 2.772 8.364 7.455 0 4.91-3.819 8.41-11.91 8.41H29.183zM39.41 27.91c0 1.226.636 1.954 3.181 1.954 4.728 0 7.319-3.273 7.364-6.637.046-4.27-3.591-6.318-10.545-6.182V27.91zm0-12.682c6.544 0 9.137-2.046 9.137-6.455 0-3.319-2.229-5.818-6.728-5.818-1.546 0-2.41.59-2.41 2.09v10.183zm87.045 16.137V.637l11.454.091c10.045 0 16.637 6.455 16.637 15.5 0 9.047-7.227 15.546-16.637 15.546l-11.454-.41zm11.454-4.228c6.411 0 10.636-4.772 10.636-10.909 0-6.544-4.225-10.864-10.636-10.864l-5.59-.091v21.774l5.59.09zm26.636-21.591h-8.68l.045-4.91h23l-.045 4.91h-8.592l-.227 26.091h-5.728l.227-26.091zm18.318-4.91h16.594v4.91h-10.866l-.09 8h10.771v4.637h-10.817l-.045 8.544h11.047v4.91h-16.911l.317-31zm-77.726 0h16.591v4.91h-10.864l-.092 8h10.773v4.637h-10.818l-.045 8.544h11.046v4.91h-16.909l.318-31zm124.909 28.64c-2.863 1.996-6.363 2.998-9.863 2.998-9.229 0-16.093-6.773-16.093-16.047C204.09 6.682 210.727 0 219.956 0c3.681 0 7.317 1.228 10.134 3.591l-2.497 4c-1.912-1.636-5.001-2.636-7.456-2.636-6.045 0-10.045 4.819-10.045 10.998 0 5.91 4.09 11.364 9.864 11.364 3.955 0 5.909-.907 7.818-1.997l2.272 3.955zm3.726-28.64h5.774l-.09 12.638h13.634l.093-12.637H259l-.274 31h-5.817l.181-13.454h-13.634l-.184 13.454h-5.771l.271-31zM60.092 30.592L66.227.183h7.046l6.454 24.409L88.41.182h7.09l3.182 30.365-5.591 1.045L91.455 9.41l-8.228 22.182h-7.726L69.818 9.637 66 31.592l-5.908-1z" opacity=".6" fill-rule="evenodd" clip-rule="evenodd" fill="#fff"/></svg>
